public/images/menu/statistics_3.svg

<svg width="120" height="119" viewBox="0 0 120 119" fill="none" xmlns="http://www.w3.org/2000/svg">
<path d="M89.2009 47.5743L96.2514 47.1287C96.2633 47.1278 96.2761 47.1269 96.289 47.126C101.313 46.7032 105.823 44.0783 108.663 39.9222L114.237 31.7671C119.088 24.6674 120.968 16.0923 119.528 7.62214C119.245 5.95861 118.392 4.42565 117.126 3.30719C115.86 2.18782 114.232 1.52679 112.542 1.44645C103.935 1.03559 95.6261 3.92531 89.1405 9.57967L81.6899 16.0758C77.8932 19.3855 75.8205 24.1652 76.0017 29.1914C76.0026 29.2033 76.0026 29.2161 76.0036 29.2289L76.4055 36.2619C76.562 39.0037 75.554 41.709 73.6452 43.6793L15.4376 103.313C13.8793 104.933 13.0746 107.156 13.1725 109.573C13.2806 112.234 14.5046 114.847 16.4474 116.564C18.2025 118.115 20.6149 118.999 23.0264 118.999C23.2846 118.999 23.5428 118.989 23.8 118.968C26.2179 118.776 28.3356 117.713 29.7693 115.965L82.144 51.2008C83.8808 49.0698 86.4534 47.7477 89.2009 47.5743V47.5743ZM79.348 48.9438L26.9778 113.703C26.1777 114.678 24.9472 115.279 23.5135 115.393C21.8078 115.529 20.0592 114.963 18.8342 113.88C17.6092 112.796 16.8365 111.133 16.7678 109.428C16.7092 107.995 17.1588 106.705 18.0249 105.805L76.2279 46.1764C78.8371 43.4839 80.2104 39.7962 79.998 36.0583L79.5961 29.0435C79.4597 25.1093 81.0848 21.3686 84.0575 18.7766L91.5081 12.2804C97.2906 7.23959 104.701 4.66577 112.371 5.02915C113.245 5.07115 114.085 5.41262 114.74 5.99148C115.394 6.56943 115.835 7.36193 115.981 8.22109C117.265 15.7727 115.589 23.4165 111.264 29.7456L105.691 37.9017C103.467 41.1557 99.9373 43.2127 96.0042 43.5496L88.973 43.9934C85.2266 44.2308 81.7201 46.0331 79.348 48.9438Z" fill="#195A00"/>
<path d="M116.677 102.86L77.6492 67.4097C76.9149 66.7423 75.7778 66.7952 75.1077 67.5275C74.4393 68.2597 74.4924 69.3946 75.2267 70.062L114.245 105.504C115.173 106.359 115.699 107.62 115.728 109.054C115.762 110.759 115.091 112.466 113.932 113.62C112.775 114.775 111.067 115.446 109.353 115.411C107.916 115.383 106.651 114.858 105.803 113.942L71.0253 75.8652C70.3561 75.132 69.2181 75.08 68.4838 75.7465C67.7496 76.4139 67.6965 77.5488 68.3657 78.2811L103.151 116.367C104.68 118.016 106.857 118.951 109.282 118.998C109.346 118.999 109.408 119 109.471 119C112.078 119 114.684 117.945 116.476 116.158C118.312 114.326 119.377 111.645 119.324 108.983C119.276 106.565 118.34 104.393 116.677 102.86V102.86Z" fill="#195A00"/>
<path d="M21.7052 47.2345C24.6825 49.9699 28.5506 51.5293 32.5972 51.6261C32.6101 51.627 32.6229 51.627 32.6348 51.627L39.699 51.649C42.4529 51.6572 45.0997 52.8231 46.9573 54.8418L50.0692 58.2483C50.4244 58.6372 50.9105 58.8344 51.3994 58.8344C51.8316 58.8344 52.2655 58.6801 52.6098 58.367C53.3449 57.6995 53.398 56.5647 52.7288 55.8324L49.6123 52.4214C47.0745 49.6622 43.4655 48.0736 39.7109 48.0608L32.6659 48.0389C29.5357 47.9594 26.5428 46.7643 24.2238 44.6707L3.75169 20.4008C3.54295 20.1524 3.55852 19.7927 3.78832 19.5635C3.94579 19.4056 4.13072 19.3828 4.22685 19.3828C4.32298 19.3828 4.50792 19.4056 4.66631 19.5635L23.301 38.1481C25.143 39.9851 28.1404 39.9851 29.9825 38.1472L32.1724 35.9641V35.9632L36.0607 32.0856C36.0607 32.0856 36.0616 32.0856 36.0616 32.0847L36.0625 32.0838L38.2515 29.9008C40.0936 28.0638 40.0936 25.0745 38.2515 23.2375L19.6169 4.65389C19.3752 4.41286 19.3752 4.01934 19.6169 3.77831C19.8467 3.54914 20.2074 3.53362 20.4564 3.74179L44.793 24.1588C46.8932 26.4706 48.0916 29.4561 48.1713 32.5768L48.1923 39.6035C48.2052 43.3468 49.7991 46.946 52.5695 49.4824L55.9038 52.5108C56.639 53.1783 57.7761 53.1253 58.4453 52.3931C59.1137 51.6599 59.0606 50.5259 58.3263 49.8585L54.9975 46.8346C52.9677 44.9775 51.7995 42.337 51.7904 39.5916L51.7684 32.5467C51.7684 32.5339 51.7684 32.5211 51.7675 32.5084C51.6704 28.4728 50.1067 24.6153 47.3638 21.6461C47.3125 21.5904 47.2576 21.5375 47.199 21.4882L22.7718 0.996329C21.0836 -0.420681 18.6336 -0.31477 17.0735 1.24102C15.4283 2.88172 15.4283 5.55048 17.0735 7.19027L35.7082 25.7748C36.1477 26.2131 36.1477 26.9261 35.7082 27.3644L34.7899 28.2792L14.0212 7.56826C13.319 6.86706 12.18 6.86706 11.4778 7.56826C10.7756 8.26855 10.7756 9.40435 11.4778 10.1046L32.2466 30.8165L30.9008 32.1578L10.132 11.4468C9.4298 10.7465 8.29088 10.7465 7.58867 11.4468C6.88555 12.1471 6.88555 13.2829 7.58867 13.9832L28.3565 34.695L27.4391 35.6108C26.9997 36.0491 26.2847 36.0491 25.8452 35.6108L7.20964 17.0272C6.41313 16.2328 5.35387 15.7946 4.22685 15.7946C3.09984 15.7946 2.04057 16.2328 1.24406 17.0272C-0.315996 18.583 -0.421282 21.0262 0.998702 22.7107L21.5477 47.0701C21.5963 47.1286 21.6494 47.1834 21.7052 47.2345Z" fill="#195A00"/>
</svg>

<svg width="120" height="119" fill="none" xmlns="http://www.w3.org/2000/svg"><path d="m89.2 47.574 7.051-.445.038-.003a16.61 16.61 0 0 0 12.374-7.204l5.574-8.155c4.851-7.1 6.731-15.675 5.291-24.145a7.443 7.443 0 0 0-2.402-4.315 7.48 7.48 0 0 0-4.584-1.86c-8.607-.411-16.916 2.478-23.401 8.133l-7.451 6.496a16.537 16.537 0 0 0-5.688 13.115c0 .012 0 .025.002.038l.401 7.033a9.884 9.884 0 0 1-2.76 7.417l-58.207 59.634c-1.559 1.62-2.363 3.843-2.266 6.26.109 2.661 1.333 5.274 3.275 6.991 1.756 1.551 4.168 2.435 6.58 2.435.258 0 .516-.01.773-.031 2.418-.192 4.536-1.255 5.97-3.003l52.374-64.764a9.938 9.938 0 0 1 7.057-3.627Zm-9.852 1.37-52.37 64.759c-.8.975-2.03 1.576-3.465 1.69-1.705.136-3.454-.43-4.679-1.513-1.225-1.084-1.997-2.747-2.066-4.452-.059-1.433.39-2.723 1.257-3.623l58.203-59.629a13.48 13.48 0 0 0 3.77-10.118l-.402-7.014a12.97 12.97 0 0 1 4.462-10.267l7.45-6.497c5.783-5.04 13.193-7.614 20.863-7.25a3.847 3.847 0 0 1 3.61 3.192c1.284 7.55-.392 15.194-4.717 21.524l-5.573 8.156a13.03 13.03 0 0 1-9.687 5.648l-7.031.443a13.555 13.555 0 0 0-9.625 4.95Z" fill="#195A00"/><path d="M116.677 102.86 77.649 67.41a1.803 1.803 0 0 0-2.541.118 1.792 1.792 0 0 0 .119 2.534l39.018 35.442c.928.855 1.454 2.116 1.483 3.55.034 1.705-.637 3.412-1.796 4.566-1.157 1.155-2.865 1.826-4.579 1.791-1.437-.028-2.702-.553-3.55-1.469L71.025 75.865a1.803 1.803 0 0 0-2.541-.118 1.791 1.791 0 0 0-.118 2.534l34.785 38.086c1.529 1.649 3.706 2.584 6.131 2.631l.189.002c2.607 0 5.213-1.055 7.005-2.842 1.836-1.832 2.901-4.513 2.848-7.175-.048-2.418-.984-4.59-2.647-6.123ZM21.705 47.234a16.682 16.682 0 0 0 10.93 4.393l7.064.022a9.934 9.934 0 0 1 7.258 3.193l3.112 3.406c.355.39.841.586 1.33.586a1.794 1.794 0 0 0 1.33-3.002l-3.117-3.41a13.552 13.552 0 0 0-9.901-4.361l-7.045-.022a13.09 13.09 0 0 1-8.442-3.368L3.752 20.4a.616.616 0 0 1 .036-.837.615.615 0 0 1 .439-.181c.096 0 .28.023.44.18L23.3 38.148a4.738 4.738 0 0 0 6.682 0l2.19-2.184 3.888-3.878v-.001l.002-.001L38.25 29.9a4.708 4.708 0 0 0 0-6.663L19.617 4.654a.62.62 0 0 1 .84-.912l24.336 20.417a13.01 13.01 0 0 1 3.378 8.418l.021 7.026a13.494 13.494 0 0 0 4.377 9.88l3.335 3.028a1.803 1.803 0 0 0 2.541-.118 1.792 1.792 0 0 0-.119-2.535l-3.328-3.023a9.89 9.89 0 0 1-3.208-7.243l-.022-7.045v-.039a16.588 16.588 0 0 0-4.404-10.862 1.797 1.797 0 0 0-.165-.158L22.772.996a4.202 4.202 0 0 0-5.698.245 4.202 4.202 0 0 0 0 5.95l18.634 18.584c.44.438.44 1.151 0 1.59l-.918.914L14.02 7.57a1.8 1.8 0 0 0-2.543 0 1.79 1.79 0 0 0 0 2.536l20.769 20.712-1.346 1.34-20.769-20.71c-.702-.7-1.841-.7-2.543 0a1.789 1.789 0 0 0 0 2.536l20.767 20.712-.917.916a1.13 1.13 0 0 1-1.594 0L7.21 17.027a4.197 4.197 0 0 0-2.983-1.232 4.197 4.197 0 0 0-2.983 1.232A4.176 4.176 0 0 0 1 22.711l20.549 24.36c.048.058.101.112.157.163Z" fill="#195A00"/></svg>
